retroactive/svg/favorites-content.svg

<?xml version="1.0" encoding="UTF-8" standalone="no"?>
<svg
   xmlns:dc="http://purl.org/dc/elements/1.1/"
   xmlns:cc="http://creativecommons.org/ns#"
   xmlns:rdf="http://www.w3.org/1999/02/22-rdf-syntax-ns#"
   xmlns:svg="http://www.w3.org/2000/svg"
   xmlns="http://www.w3.org/2000/svg"
   viewBox="0 0 320 320"
   height="320"
   width="320"
   xml:space="preserve"
   version="1.1"
   id="svg2"><metadata
     id="metadata8"><rdf:RDF><cc:Work
         rdf:about=""><dc:format>image/svg+xml</dc:format><dc:type
           rdf:resource="http://purl.org/dc/dcmitype/StillImage" /></cc:Work></rdf:RDF></metadata><defs
     id="defs6"><clipPath
       id="clipPath16"
       clipPathUnits="userSpaceOnUse"><path
         id="path18"
         d="M 0,256 256,256 256,0 0,0 0,256 Z" /></clipPath><clipPath
       id="clipPath24"
       clipPathUnits="userSpaceOnUse"><path
         id="path26"
         d="m 9.19377,244.037 237.61223,0 0,-229.8158 -237.61223,0 0,229.8158 z" /></clipPath></defs><g
     transform="matrix(1.25,0,0,-1.25,0,320)"
     id="g10"><g
       id="g12"><g
         clip-path="url(#clipPath16)"
         id="g14"><g
           id="g20"><g
             id="g22" /><g
             id="g28"><g
               style="opacity:0.5"
               id="g30"
               clip-path="url(#clipPath24)"><g
                 id="g32"
                 transform="translate(128,244.0371)"><path
                   id="path34"
                   style="fill:#ffffff;fill-opacity:1;fill-rule:nonzero;stroke:none"
                   d="m 0,0 -7.544,-21.375 -22.116,-62.662 -66.34,0 -22.806,0 17.808,-14.247 55.562,-44.449 -22.108,-62.642 -8.626,-24.44 20.901,15.327 55.269,40.53 55.27,-40.53 20.9,-15.327 -8.626,24.44 -22.108,62.642 55.561,44.449 17.81,14.247 -22.807,0 -66.34,0 L 7.544,-21.375 0,0 Z" /></g></g></g></g></g></g><g
       transform="translate(128,220)"
       id="g36"><path
         id="path38"
         style="fill:#eac500;fill-opacity:1;fill-rule:nonzero;stroke:none"
         d="m 0,0 24,-68 72,0 -60,-48 24,-68 -60,44 -60,-44 24,68 -60,48 72,0 24,68 z" /></g></g></svg>

<?xml version="1.0" encoding="UTF-8" standalone="no"?>
<svg
   xmlns:dc="http://purl.org/dc/elements/1.1/"
   xmlns:cc="http://creativecommons.org/ns#"
   xmlns:rdf="http://www.w3.org/1999/02/22-rdf-syntax-ns#"
   xmlns:svg="http://www.w3.org/2000/svg"
   xmlns="http://www.w3.org/2000/svg"
   viewBox="0 0 316.81598 306.41986"
   height="306.41986"
   width="316.81598"
   xml:space="preserve"
   id="svg2"
   version="1.1"><metadata
     id="metadata8"><rdf:RDF><cc:Work
         rdf:about=""><dc:format>image/svg+xml</dc:format><dc:type
           rdf:resource="http://purl.org/dc/dcmitype/StillImage" /></cc:Work></rdf:RDF></metadata><defs
     id="defs6"><clipPath
       id="clipPath18"
       clipPathUnits="userSpaceOnUse"><path
         id="path16"
         d="M 0,256 H 256 V 0 H 0 Z" /></clipPath><clipPath
       id="clipPath26"
       clipPathUnits="userSpaceOnUse"><path
         id="path24"
         d="M 9.19377,244.037 H 246.806 V 14.2212 H 9.19377 Z" /></clipPath></defs><g
     transform="matrix(1.3333333,0,0,-1.3333333,-12.258666,325.38266)"
     id="g10"><g
       id="g12"><g
         clip-path="url(#clipPath18)"
         id="g14"><g
           id="g20"><g
             id="g22" /><g
             id="g34"><g
               style="opacity:0.5"
               id="g32"
               clip-path="url(#clipPath26)"><g
                 id="g30"
                 transform="translate(128,244.0371)"><path
                   id="path28"
                   style="fill:#ffffff;fill-opacity:1;fill-rule:nonzero;stroke:none"
                   d="M 0,0 -7.544,-21.375 -29.66,-84.037 H -96 -118.806 l 17.808,-14.247 55.562,-44.449 -22.108,-62.642 -8.626,-24.44 20.901,15.327 55.269,40.53 55.27,-40.53 20.9,-15.327 -8.626,24.44 -22.108,62.642 55.561,44.449 17.81,14.247 H 96 29.66 L 7.544,-21.375 Z" /></g></g></g></g></g></g><g
       transform="translate(128,220)"
       id="g36"><path
         id="path38"
         style="fill:#eac500;fill-opacity:1;fill-rule:nonzero;stroke:none"
         d="m 0,0 24,-68 h 72 l -60,-48 24,-68 -60,44 -60,-44 24,68 -60,48 h 72 z" /></g></g></svg>
